dist/svgs/crypto-icons/icons/gno.svg

<?xml version="1.0" encoding="UTF-8" standalone="yes"?>
<svg xmlns="http://www.w3.org/2000/svg" xmlns:xlink="http://www.w3.org/1999/xlink" width="512px" height="512px" viewBox="0 0 384 384" version="1.1">
  <g id="surface1">
    <path style=" stroke:none;fill-rule:nonzero;fill:rgb(0%,0%,0%);fill-opacity:1;" d="M 254.652344 154.261719 L 249.105469 159.808594 C 253.519531 166.742188 254.902344 175.4375 251.878906 183.753906 C 246.835938 197.871094 231.207031 205.308594 216.964844 200.265625 C 214.949219 199.507812 213.058594 198.625 211.417969 197.492188 L 193.648438 215.265625 L 178.144531 199.636719 C 170.746094 204.570312 161.457031 205.734375 153.0625 202.789062 C 138.441406 197.496094 130.882812 181.488281 136.175781 166.992188 C 136.929688 164.722656 138.066406 162.707031 139.324219 160.816406 L 132.644531 154.136719 L 131.386719 156.28125 C 124.390625 167.699219 120.683594 180.828125 120.671875 194.21875 C 120.546875 234.425781 153.316406 267.320312 193.523438 267.320312 L 193.648438 267.320312 C 233.855469 267.320312 266.5 234.675781 266.625 194.46875 C 266.625 181.09375 262.960938 167.976562 256.039062 156.53125 Z M 254.652344 154.261719 "/>
    <path style=" stroke:none;fill-rule:nonzero;fill:rgb(0%,0%,0%);fill-opacity:1;" d="M 147.519531 169.007812 C 145.554688 171.625 144.492188 174.8125 144.492188 178.085938 C 144.492188 186.277344 151.175781 192.957031 159.367188 192.957031 C 162.664062 192.972656 165.867188 191.863281 168.441406 189.804688 Z M 220.496094 188.546875 C 222.890625 190.183594 225.664062 191.066406 228.8125 191.066406 C 237.003906 191.066406 243.6875 184.386719 243.6875 176.195312 C 243.6875 173.167969 242.804688 170.269531 241.164062 167.875 Z M 193.902344 204.175781 L 133.652344 143.675781 L 136.050781 141.15625 C 150.921875 125.402344 171.214844 116.578125 193.019531 116.578125 L 193.144531 116.578125 C 215.203125 116.578125 236.375 126.03125 251.121094 142.414062 L 253.390625 144.933594 Z M 143.484375 143.675781 L 193.902344 194.214844 L 243.6875 144.683594 C 230.324219 131.324219 212.175781 123.632812 193.269531 123.632812 L 193.144531 123.632812 C 174.363281 123.632812 156.84375 130.695312 143.484375 143.675781 Z M 127.476562 243.121094 L 120.421875 242.617188 C 90.421875 240.722656 49.082031 233.289062 22.363281 209.214844 C 5.851562 194.46875 2.699219 180.476562 2.574219 179.847656 L 1.691406 175.5625 L 110.839844 175.5625 L 110.210938 179.59375 C 109.707031 183.269531 109.453125 186.976562 109.453125 190.6875 C 109.453125 207.324219 114.242188 223.457031 123.441406 237.195312 Z M 259.566406 243.121094 L 263.476562 237.195312 C 272.675781 223.457031 277.464844 207.449219 277.464844 190.9375 C 277.464844 187.160156 277.210938 183.25 276.707031 179.59375 L 276.203125 175.5625 L 385.351562 175.5625 L 384.46875 179.847656 C 384.34375 180.476562 381.195312 194.46875 364.808594 209.214844 C 338.085938 233.289062 296.621094 240.722656 266.625 242.613281 Z M 259.566406 243.121094 "/>
  </g>
</svg>

<svg xmlns="http://www.w3.org/2000/svg" viewBox="0 0 384 384"><path d="M254.652 154.262l-5.547 5.547c4.415 6.933 5.797 15.629 2.774 23.945-5.043 14.117-20.672 21.555-34.914 16.512-2.016-.758-3.906-1.641-5.547-2.774l-17.77 17.774-15.503-15.63a28.312 28.312 0 01-25.083 3.153c-14.62-5.293-22.18-21.3-16.886-35.797.754-2.27 1.89-4.285 3.148-6.176l-6.68-6.68-1.257 2.145a72.737 72.737 0 00-10.715 37.938c-.125 40.207 32.644 73.101 72.851 73.101h.125c40.207 0 72.852-32.644 72.977-72.851a73.31 73.31 0 00-10.586-37.938zm0 0"/><path d="M147.52 169.008a15.124 15.124 0 00-3.028 9.078c0 8.191 6.684 14.871 14.875 14.871 3.297.016 6.5-1.094 9.074-3.152zm72.976 19.539c2.395 1.637 5.168 2.52 8.316 2.52 8.192 0 14.875-6.68 14.875-14.872 0-3.027-.882-5.925-2.523-8.32zm-26.594 15.629l-60.25-60.5 2.399-2.52c14.87-15.754 35.164-24.578 56.969-24.578h.125c22.058 0 43.23 9.453 57.976 25.836l2.27 2.52zm-50.418-60.5l50.418 50.539 49.786-49.531c-13.364-13.36-31.512-21.051-50.418-21.051h-.125c-18.782 0-36.301 7.062-49.66 20.043zm-16.007 99.445l-7.055-.504c-30-1.894-71.34-9.328-98.059-33.402C5.852 194.469 2.7 180.477 2.574 179.848l-.883-4.286H110.84l-.63 4.032a81.688 81.688 0 00-.757 11.094c0 16.636 4.79 32.769 13.988 46.507zm132.09 0l3.91-5.926c9.199-13.738 13.988-29.746 13.988-46.257a84.41 84.41 0 00-.758-11.344l-.504-4.031h109.149l-.883 4.285c-.125.629-3.274 14.62-19.66 29.367-26.723 24.074-68.188 31.508-98.184 33.398zm0 0"/></svg>
